X: 22
%
U:~=!turn!
T: Huntly's Wedding Medley
T: Banais Marcus Hundfhuinn
C:Capt. Fraser
O:Scotland
B:Keith Norman MacDonald : "The Skye collection of the best reels & strathspeys extant" : 1887
Z:Ralph Palmer
R:Strathspey
M:C
L:1/8
K:A
(b/a/g/f/) | e>A{AB}c>A F<AE>D | C>EAg a2 (b/a/g/f/) | e<A{AB}c>A F<AE>C | E/F/G/A/ B>G A2 A (b/4a/4g/4f/4) | e<A{AB}c>A F<AE>D |
C>EAg a2 (b/a/g/f/) | e<A{AB}c>A F<AE>C | E/F/G/A/ B>G A2 A ||E | C<EE>G A<ETE>D | C<EA>B ~c2 (d/c/)B/A/ |
C<EE>G B<EE>C | E/F/G/A/ B>G A2 AE | C<EE>G A<EE>D | C<EAg a2 (b/a/).g/.f/ | ((3.e.c.e) ((3.f.d.f) ((3.g.e.g) a>f | e/f/g/a/ b>g a2 a |]


